X: 3
T:Liberty Two Step
O:Trad
Z: 1997 by John Chambers <jc@trillian.mit.edu> Modified by Alf Warnock - alf0@rogers.com - www.alfwarnock.info/alfs
Z: to suit printed version played in Ottawa
M:C|
L:1/8
K:D
|: "D" f2A2 f2A2 | fgfe defa | "G"g2B2 g2B2 | gagf edBA |
"D" f2A2 f2A2 | fgfe d2cd | "G"efed "A7"B2c2 | "D"d4 d4 :|
|: "D"A2AB AGFE | DFAd f2d2 | A2AB AGF2 | "A7"E3F E2FG |
"D"A2AB AGFE | DFAd fed2 | "G"efed "A7"B2c2 | "D"d4 d4 :|
